X: 3
T: The Gun In The Thatch
R: reel
M: 4/4
L: 1/8
K: Gmaj
|:BGAF DGGA|B2ge fdcA|BGAF DG~G2|1 FGAB c2dc:|2 FGAB c2Bc||
|:dggf g2bg|dg~g2 fgaf|dggf ~g3a|bgag fdcA:|


Tune 1045	Setting 14274

